packages/hms_room_kit/lib/src/assets/icons/spotlight.svg

<svg width="20" height="20" viewBox="0 0 20 20" fill="none" xmlns="http://www.w3.org/2000/svg">
<g id="Star-2">
<path id="Vector" fill-rule="evenodd" clip-rule="evenodd" d="M10 2.5C10.2595 2.5 10.4965 2.64732 10.6114 2.88003L12.5597 6.82712L16.9168 7.46397C17.1735 7.5015 17.3867 7.6815 17.4667 7.92833C17.5468 8.17515 17.4798 8.446 17.2939 8.62705L14.1417 11.6973L14.8856 16.0347C14.9295 16.2905 14.8243 16.549 14.6144 16.7016C14.4044 16.8541 14.126 16.8742 13.8963 16.7534L10 14.7044L6.10373 16.7534C5.87401 16.8742 5.59563 16.8541 5.38565 16.7016C5.17566 16.549 5.0705 16.2905 5.11437 16.0347L5.85829 11.6973L2.70611 8.62705C2.52024 8.446 2.45323 8.17515 2.53326 7.92833C2.61329 7.6815 2.82648 7.5015 3.08323 7.46397L7.44028 6.82712L9.38861 2.88003C9.50348 2.64732 9.74049 2.5 10 2.5ZM10 4.72221L8.50458 7.75178C8.40535 7.95281 8.21363 8.09221 7.9918 8.12464L4.64666 8.61358L7.06664 10.9706C7.22747 11.1273 7.30087 11.3531 7.26292 11.5743L6.69195 14.9034L9.68265 13.3306C9.88132 13.2261 10.1187 13.2261 10.3174 13.3306L13.308 14.9034L12.7371 11.5743C12.6991 11.3531 12.7725 11.1273 12.9334 10.9706L15.3533 8.61358L12.0082 8.12464C11.7864 8.09221 11.5947 7.95281 11.4954 7.75178L10 4.72221Z" fill="#EFF0FA"/>
</g>
</svg>

<svg xmlns="http://www.w3.org/2000/svg" width="20" height="20" fill="none" viewBox="0 0 20 20"><path fill="#EFF0FA" fill-rule="evenodd" d="M10 2.5a.68.68 0 0 1 .611.38l1.949 3.947 4.357.637a.682.682 0 0 1 .377 1.163l-3.152 3.07.744 4.338a.682.682 0 0 1-.99.718L10 14.704l-3.896 2.05a.682.682 0 0 1-.99-.72l.744-4.337-3.152-3.07a.682.682 0 0 1 .377-1.163l4.357-.637L9.39 2.88A.682.682 0 0 1 10 2.5Zm0 2.222-1.495 3.03a.682.682 0 0 1-.513.373l-3.345.489 2.42 2.357c.16.156.234.382.196.603l-.571 3.33 2.99-1.573a.682.682 0 0 1 .635 0l2.991 1.572-.57-3.329a.682.682 0 0 1 .195-.603l2.42-2.357-3.345-.49a.682.682 0 0 1-.513-.372L10 4.722Z" clip-rule="evenodd"/></svg>
